!! 00000] TT[WS
!!!OTL: Pan zhangfu
!!!ARE: Asia, China,ÿShanxi Yengxian
!! Ethnic Group: Han
!! WI, 143
!!!SCT: J0173
!!!YEM: Copyright 1995, estate of Helmut Schaffrath.
**kern
*ICvox
*Ivox
*M2/4
*k[f#]
*G:
{8ee
8ee
16dd
16ee
16dd
16b
=1
2a
=2
8dd
16dd
16e
16g
16a
16g
16e
=3
2d}
=4
{8g
16g
16e
4a
=5
16b
16dd
16b
16a
8e
16e
16g
=6
8a
16a
16b
16g
16a
16g
16e
=7
2d}
=8
{8ee
16ee
16dd
4b
=9
16ee
16gg
16ee
16dd
4b
=10
16a
16b
16a
16g
16e
16g
16d
16e
=11
2g}
=12
{8ee
16ee
16dd
4b
=13
16a
16b
16a
16g
4e
=14
8a
16dd
16dd
16g
16a
16g
16e
=15
2d}
=16
{8g
16g
16a
16b
16dd
16b
16a
=17
8g
4.g
=18
8g
16g
16a
16b
16dd
16b
16a
=19
8g
4.g}
=20
{8ee
16ee
16dd
4b
=21
16a
16b
16a
16g
8e
8e
=22
8a
16dd
16dd
16g
16a
16g
16e
=23
2d}
==
!!!AGN: Xiaodiao. Qingge
!!!ONB: ESAC (Essen Associative Code) Database: CHINA
!!!AMT: simple duple
!!!AIN: vox
!!!EED: Helmut Schaffrath
!!!EEV: 1.0
*-
